X:1
T:Title
%%score { 1 | 2 }
L:1/8
Q:1/4=100
M:4/4
K:D
V:1 treble nm="Grand Piano"
V:2 bass 
V:1
 [DF]3 [EG] [FA]2 F2 | d2 B2 [FA]4 | B3 B A2 F2 | E2 D2 [CE]4 | E3 F G2 [CE]2 | %5
w: Geo.~C.~Stebbins * * *|||||
 [Ec]2 [CGB]2 [DFA]4 | [Fd]3 [DB] [DA]2[K:bass] [F,D]2 | [A,DF]2 [G,CE]2 [F,D]4 |] %8
w: |||
V:2
 [D,A,]3 [D,A,] [D,D]2 [D,A,D]2 | [F,A,D]2[K:treble] [G,DG]2 [D,D]4 | %2
 [G,DG]3 [G,DG][K:bass] [F,D]2 [D,A,D]2 | [C,A,]2 [B,,^G,B,]2 [A,,A,]4 | %4
 [G,A,C]3 [F,A,C] [E,A,C]2 [A,,A,]2 | [A,,A,]2 A,,2 D,4 | [D,A,]3 [G,,G,] [A,,F,]2 B,,2 | %7
 A,,2 A,,2 D,4 |] %8

